X: 42104
T: Wantoness For Ever Mair
R: reel
M: 4/4
K: Dmajor
|:f2fe d2ef|e2d2B4|d2cB A2d2|AFdB AFED|
f2fe d2ef|e2d2 B2de|fedB dBAF|B4 E4:|
|:E2FA B2B2|B2A2 B4|D2EF A3B|AFdB AFED|
E2FA B2B2|B2A2 B2de|fedB dBAF|B4E4:|

